X:1
T:A ce matin
T:A ce matin
T:Jean de Castro
T:Source : Livre de chansons à 3 parties---Paris---A.le Roy & R.Ballard---1575. Editor : André Vierendeels (26/09/15).
T:Notes : Original clefs :G2, C2, C3 Editorial accidentals above the staff
C:Jean de Castro
%%score [ 1 2 3 ]
L:1/8
Q:1/4=110
M:2/2
K:F
V:1 treble nm="Superius" snm="S"
V:2 treble nm="Altus" snm="A"
V:3 treble-8 nm="Tenor" snm="T"
V:1
 z8 | d4 =B2 c2 | d4 z2 d2 | d2 B2 c2 d2 | B4 A2 f2 | d2 e2 f3 e | d2 c2 B2 G2 | A4 =B4 | z8 | %9
w: |A ce ma-|tin, ce|se- rait bon- n'e-|trei- ne, à|ce ma- tin ce|se- rait bon- n'e-|trei- ne,||
 z2 A2 A2 B2 | c4 z2 f2- | f2 e4 d2- | d2 c4 B2- | B2 A4 G2 | ^F2 G3 F/E/ F2 | G2 B2 B2 G2 | %16
w: de des- jeu-|ner, de|_ des- jeu-|* ner le|_ bon jam-|bon sa- * * *|lé, et de bon|
 d2 d2 =B2 c2 | d4 z2 d2 | d2 B2 c2 d2 | B4 A2 f2 | d2 e2 f3 e | d2 c2 B2 G2 | A4 B4 | z8 | %24
w: vin, et de bon|vin, la|grand' bou- teil- le|plei- ne, et|de bon vin, la|grand' bou- teil- le|plei- ne,||
 z2 A2 A2 B2 | c4 z2 f2- | f2 e4 d2- | d2 c4 B2- | B2 A4 G2 | ^F2 G3 F/E/ F2 | G8 | z2 g2 g2 g2 | %32
w: car dou- ce-|ment, car|_ dou- ce|_ ment est|_ de moy|a- val- * * *|lé,|a- voir bon|
 d6 g2 | f4 d4 | z2 d2 d2 B2 | c2 d2 c4 | z2 f2 f2 f2 | f4 z2 d2 | d2 d2 d2 f2 | e4 d4 | %40
w: feu, le|pain blanc,|le pain blanc|cha- pe- lé,|ac- com- pa-|gné, ac-|com- pa- gné de|la bel-|
 c2 d4 ^c2 | d2 f2 e2 d2 | c4 d4 | c4 B4 | A4 G4 | A4 A4 | B4 G4 | ^F4 A2 A2 | =B4 z4 | d2 e2 f4 | %50
w: le'au cors _|gent, mais tou- te-|fois, a-|voir beu|et gal-|lé, le|prin- ci-|pal, c'est d'a-|voir,|c'est d'a- voir,|
 c2 d2 e4 | d2 e2 f4 | c2 c2 d4 | z4 A2 B2 | c4 G2 A2 | B2 B2 A4 | !fermata!=B8 |] %57
w: c'est d'a- voir,|c'est d'a- voir,|c'est d'a- voir,|c'est d'a-|voir, c'est d'a-|voir de l'ar-|gent.|
V:2
 z8 | z8 | z8 | G4 E2 F2 | G2 G2 F2 A2 | B2 G2 F2 A2 | z2 A2 D2 G2 | G2 ^F2 G2 D2- | D2 ^F2 F2 G2 | %9
w: |||A ce a-|tin, ce se- rait|bon- n'e- trei- ne,|ce se- rait|bon- n'e- trei- ne,|_ de des- jeu-|
"^-natural" A4 F4 | E4 D4 | G4 F4 | E4 G4 | F4 G4 | A2 B2 A4 | z2 G2 F2 E2 | F2 B2 G2 G2 | %17
w: ner le|bon jam-|bon sa-|lé, le|bon jam-|bon sa- lé,|et de bon|vin, la grand' bou-|
 A2 G2 ^F4 | G2 G2 E2 F2 | G2 G2 ^F2 A2 | B2 G2 F2 A2 | z2 A2 D2 G2 | G2 ^F2 G2 D2- | D2 F2 F2 G2 | %24
w: teil- le plei-|ne, et- de bon|vin, la grand' bou-|teil- le plei- ne,|la grand' bou-|teil- le plei- ne,|_ car dou- ce-|
 A4 F4 | E4 D4 | G4 F4 | E4 G4 | F4 G4 | A2 B2 A4 | z2 c2 c2 c2 | G4 z2 B2 | B4 B4 | A2 A2 B4 | %34
w: ment est|de moy|a- val-|lé, est|de moy|a- val- lé,|a- voir bon|feu, a-|voir bon|feu, le pain,|
 z2 B4 G2 | A2 B4 A2 | F4 z2 D2 | D2 D2 D4 | z2 B2 B2 B2 | G2 A2 F2 D2 | F4 E4 | G2 F2 G2 G2 | %42
w: le pain|blanc cha- pe-|lé, ac-|com- pa- gné,|ac- com- pa-|gné de la bel-|le'au cors|gent, maais tou- te-|
 A4 z2 B2- | B2 A4 G2- | G2 F4 E2 | D4 D4 | G4 C4 | D4 ^F2 F2 | G4 E2 F2 | G4 F2 G2 | A4 G2 A2 | %51
w: fois, a-|* voir beu|_ et gal-|lé, le|prin- ci-|pal, c'est d'a-|voir, c'est d'a-|voir, c'est d'a-|voir, c'est d'a-|
 B4 A4- | A2 A2 B4 | A4 ^F4 | G4 E2 E2 | ^F2 G4 F2 | !fermata!G8 |] %57
w: voir, c'est|_ d'a- voir|de l'ar-|gent, c'est d'a-|voir de l'ar-|gent.|
V:3
 d4 B2 c2 | d2 g2 g2 e2 | f2 g2 d4 | G4 z4 | z4 d4 | B2 c2 d2 A2 | B2 F2 G2 G2 | d4 G4 | %8
w: A ce ma-|tin, ce se- rait|bon- n'e- trei-|ne,|à|ce a- tin ce|se- rait bon- n'e-|trei- ne,|
 z2 d2 d2 e2 |"^-natural" f4 d4 | c4 B4 | c4 d4 | A4 z2 G2 | d4 _e4 | d4 d4 | G2 G2 B2 c2 | %16
w: de des- jeu-|ner le|bon jam-|bon sa-|lé, le|bon jam-|bon sa-|lé, et de bon|
 d2 g2 g2 e2 | f2 g2 d4 | G4 z4 | z4 d4 | B2 c2 d2 A2 | B2 F2 G2 G2 | d4 G4 | z2 d2 d2 e2 | f4 d4 | %25
w: vin, la grand' bou-|teil- le plei-|ne,|et|de bon vin, la|grand' bou- teil- le|plei- ne,|car dou- ce-|ment est|
 c4 B4 | c4 d4 | A4 G4 | d4 _e4 | d4 d4 | c4 c4 | c2 c2 G4 | z2 g2 g2 g2 | d4 G4 | g4 g4 | f6 f2 | %36
w: de moy|a- val-|lé, est|de moy|a- val-|lé, a-|voir bon feu,|a- voir bon|feu, le|pain blanc|cha- pe-|
 B4 z2 B2 | B2 B2 B4- | B2 B2 B2 B2 | c4 d4 | A8 | z2 d2 c2 B2 | A4 G4 | f4 g4 | d2 d2 g4- | %45
w: lé, ac-|com- pa- gné|_ de la bel-|le'au cors|gent,|mais tou- te-|fois, a-|voir beu|et gal- lé,|
 g2 ^fe f4 | z8 | z4 d4 | G4 c4 | G4 d2 e2 | f4 c2 c2 | g4 d2 e2 | f4 B2 c2 | d8 | c8 | d8 | %56
w: _ _ _ _||le|prin- ci-|pal c'est d'a-|voir, c'est d'a-|voir, c'est d'a-|voir, c'est d'a-|voir|de|l'ar-|
 !fermata!G8 |] %57
w: gent.|

